svg/300/sharp/view_list-fill.svg

<svg xmlns="http://www.w3.org/2000/svg" width="48" height="48" viewBox="0 -960 960 960"><path d="M342.692-180.001h517.307V-350.54H342.692v170.539ZM100.001-609.46h197.307v-170.539H100.001v170.539Zm0 214.537h197.307v-169.154H100.001v169.154Zm0 214.922h197.307V-350.54H100.001v170.539Zm242.691-214.922h517.307v-169.154H342.692v169.154Zm0-214.537h517.307v-170.539H342.692v170.539Z"/></svg>

<svg xmlns="http://www.w3.org/2000/svg" width="48" height="48" viewBox="0 -960 960 960"><path d="M342.69-180H860v-170.54H342.69V-180ZM100-609.46h197.31V-780H100v170.54Zm0 214.54h197.31v-169.16H100v169.16ZM100-180h197.31v-170.54H100V-180Zm242.69-214.92H860v-169.16H342.69v169.16Zm0-214.54H860V-780H342.69v170.54Z"/></svg>
